shared/images/iconfont/kb-iconfont-proof-good-16.svg

<?xml version="1.0" encoding="UTF-8"?>
<svg width="16px" height="16px" viewBox="0 0 16 16" version="1.1" xmlns="http://www.w3.org/2000/svg" xmlns:xlink="http://www.w3.org/1999/xlink">
    <!-- Generator: sketchtool 49.2 (51160) - http://www.bohemiancoding.com/sketch -->
    <title>2A887FB1-4EB2-4A93-ADC9-C2C5943A9FCD</title>
    <desc>Created with sketchtool.</desc>
    <defs></defs>
    <g id="Colors,-icons" stroke="none" stroke-width="1" fill="none" fill-rule="evenodd">
        <g id="Icons-2" transform="translate(-307.000000, -308.000000)">
            <g id="kb-iconfont-proof-good-16" transform="translate(307.000000, 308.000000)">
                <rect id="icon-area" fill="#D8D8D8" opacity="0" x="0" y="0" width="16" height="16"></rect>
                <path d="M15.2200003,5.52640203 L14.668456,7.99928886 L15.2200003,10.4721757 L13.3209158,12.14866 L12.3125454,14.4712068 L9.79168951,14.7135786 L9.11930262,15.1098234 L7.6099968,15.9985777 L6.10069098,15.1098234 L5.42798412,14.7135786 L2.90712822,14.4712068 L1.8990845,12.1481734 L0,10.4721757 L0.551544301,7.99928886 L0,5.52640203 L1.8990845,3.85040436 L2.90745486,1.52737088 L5.42831075,1.28483911 L7.6099968,0 L9.79201615,1.28483911 L12.312872,1.52737088 L13.3209158,3.85040436 L15.2200003,5.52640203 Z M11.3150036,4.85411478 C10.9757144,4.57146535 10.4715406,4.61734733 10.1888471,4.95659986 L6.65109498,9.20198082 L4.8501081,8.00145216 C4.61243565,7.84061764 4.30679818,7.81949007 4.04925631,7.94609229 C3.79171445,8.07269451 3.62177252,8.32760701 3.6039631,8.6140311 C3.58615368,8.90045519 3.72320855,9.1744563 3.96308345,9.33198715 L6.95952169,11.3297446 L11.4174847,5.98026729 C11.7001415,5.64098256 11.6542608,5.13680468 11.3150036,4.85411478 Z" id="Combined-Shape" fill="#000000" fill-rule="nonzero"></path>
            </g>
        </g>
    </g>
</svg>

<svg xmlns="http://www.w3.org/2000/svg" width="16" height="16" viewBox="0 0 16 16">
    <path fill="#000" fill-rule="nonzero" d="M15.22 5.526L14.668 8l.552 2.473-1.9 1.677-1.007 2.322-2.521.243-.673.396-1.509.889-1.51-.89-.672-.395-2.52-.243-1.009-2.323L0 10.472.552 8 0 5.526 1.9 3.85l1.007-2.323 2.521-.242L7.61 0l2.182 1.285 2.52.242 1.009 2.323 1.899 1.676zm-3.905-.672a.8.8 0 0 0-1.126.103L6.65 9.202l-1.8-1.2a.8.8 0 1 0-.888 1.33L6.96 11.33l4.457-5.35a.8.8 0 0 0-.102-1.126z"/>
</svg>
